X:30
T:
S:Uppt. efter Selma Ahlgren i Burs.
M:3/4
L:1/8
K:A
A> E C A, C E|A2 c4|G> A B2 d2|G> G A4|
w:Lil-la Em-ma gick så dys-ter till de dö-das hem en natt.
A> E C A, C E|A2 c4|G> A B2 d2|G> G A4|
w:Sör-jan-de sin tvil-ling-sys-ter, hon på gra-vens kul-le satt;
G> A B2 d2|c> B A2 A2|G> F E2 (EF)|D> E C4|
w:suc-ka-de med barns-lig stäm-ma: »Han-na, so-ver_ du väl än?
A> E C A, C E|A2 c4|G> A B2 d2|G> G A4|
w:Har du glömt din li-la Em-ma? Kän-ner du mig ej i-gän?»
